svgs/sharp-regular/arrow-up-right-from-square.svg

<svg xmlns="http://www.w3.org/2000/svg" viewBox="0 0 512 512"><!--! Font Awesome Pro 6.6.0 by @fontawesome - https://fontawesome.com License - https://fontawesome.com/license (Commercial License) Copyright 2024 Fonticons, Inc. --><path d="M328 0L304 0l0 48 24 0 102.1 0L207 271l-17 17L224 321.9l17-17 223-223L464 184l0 24 48 0 0-24 0-160 0-24L488 0 328 0zM24 32L0 32 0 56 0 488l0 24 24 0 432 0 24 0 0-24 0-176 0-24-48 0 0 24 0 152L48 464 48 80l152 0 24 0 0-48-24 0L24 32z"/></svg>

<svg xmlns="http://www.w3.org/2000/svg" viewBox="0 0 512 512"><!--! Font Awesome Pro 6.4.0 by @fontawesome - https://fontawesome.com License - https://fontawesome.com/license (Commercial License) Copyright 2023 Fonticons, Inc. --><path d="M328 0H304V48h24H430.1L207 271l-17 17L224 321.9l17-17 223-223V184v24h48V184 24 0H488 328zM24 32H0V56 488v24H24 456h24V488 312 288H432v24V464H48V80H200h24V32H200 24z"/></svg>
